images/lightbulb-outlined.svg

<svg fill="none" height="22" viewBox="0 0 22 22" width="22" xmlns="http://www.w3.org/2000/svg"><path clip-rule="evenodd" d="m7.30489 5.32845c-.71201 1.04683-.93318 2.34671-.93318 3.23381 0 .24506.07984.61976.26259 1.1136.17757.47984.42972 1.01304.72016 1.55504.47321.8831 1.02635 1.7495 1.46589 2.3845h4.77375c.4396-.635.9927-1.5014 1.4659-2.3845.2905-.542.5426-1.0752.7202-1.55504.1827-.49384.2626-.86854.2626-1.1136 0-.8871-.2212-2.18698-.9332-3.23381-.6729-.98931-1.8217-1.81932-3.9024-1.81932-2.08065 0-3.22942.83001-3.90231 1.81932zm-1.62458-.99724c1.01954-1.49896 2.77208-2.65958 5.52689-2.65958 2.7549 0 4.5074 1.16062 5.527 2.65958.9804 1.44146 1.2428 3.12752 1.2428 4.23105 0 .55118-.162 1.15521-.3721 1.72304-.2153.5818-.5072 1.1932-.8212 1.7792-.6277 1.1715-1.3767 2.3019-1.88 2.9926l-.7951 1.1211h-2.9014-2.90128l-.79515-1.1211c-.5033-.6907-1.25229-1.8211-1.88003-2.9926-.314-.586-.60585-1.1974-.82117-1.7792-.21013-.56783-.37207-1.17186-.37207-1.72304 0-1.10353.26239-2.78959 1.24281-4.23105zm2.62561 12.81409.48355.9671h4.83553l.4836-.9671zm.96711 1.9342.96707.9671h1.9342l.9671-.9671zm3.67497-14.65161-4.64208 4.78717h2.90128l-1.45062 3.48154 4.35202-5.00473h-2.3211z" fill="#0d75b0" fill-rule="evenodd"/></svg>

<svg width="22" height="22" viewBox="0 0 22 22" fill="none" xmlns="http://www.w3.org/2000/svg">
<path fill-rule="evenodd" clip-rule="evenodd" d="M7.30489 5.32845C6.59288 6.37528 6.37171 7.67516 6.37171 8.56226C6.37171 8.80732 6.45155 9.18202 6.6343 9.67586C6.81187 10.1557 7.06402 10.6889 7.35446 11.2309C7.82767 12.114 8.38081 12.9804 8.82035 13.6154H13.5941C14.0337 12.9804 14.5868 12.114 15.06 11.2309C15.3505 10.6889 15.6026 10.1557 15.7802 9.67586C15.9629 9.18202 16.0428 8.80732 16.0428 8.56226C16.0428 7.67516 15.8216 6.37528 15.1096 5.32845C14.4367 4.33914 13.2879 3.50913 11.2072 3.50913C9.12655 3.50913 7.97778 4.33914 7.30489 5.32845ZM5.68031 4.33121C6.69985 2.83225 8.45239 1.67163 11.2072 1.67163C13.9621 1.67163 15.7146 2.83225 16.7342 4.33121C17.7146 5.77267 17.977 7.45873 17.977 8.56226C17.977 9.11344 17.815 9.71747 17.6049 10.2853C17.3896 10.8671 17.0977 11.4785 16.7837 12.0645C16.156 13.236 15.407 14.3664 14.9037 15.0571L14.1086 16.1782H11.2072H8.30592L7.51077 15.0571C7.00747 14.3664 6.25848 13.236 5.63074 12.0645C5.31674 11.4785 5.02489 10.8671 4.80957 10.2853C4.59944 9.71747 4.4375 9.11344 4.4375 8.56226C4.4375 7.45873 4.69989 5.77267 5.68031 4.33121ZM8.30592 17.1453L8.78947 18.1124H13.625L14.1086 17.1453H8.30592ZM9.27303 19.0795L10.2401 20.0466H12.1743L13.1414 19.0795H9.27303ZM12.948 4.42789L8.30592 9.21506H11.2072L9.75658 12.6966L14.1086 7.69187H11.7875L12.948 4.42789Z" fill="#0D75B0"/>
</svg>
